X:46
T: Graf und Nonne (Die Nonne)
N: Q0155s
O: Osteuropa, Ungarn, Felsoeszentivan, Csavoly
N: Eingeklammerte Noten (Strophenvariante) nicht gespielt.
R: Ballade, Standesunterschied, vergebliche Werbung, Liebe, Klage
M: 6/8
L: 1/8
K: E
 | =G2FE2E | BB2z2
B | A2Bee=c | B3z2
B | eeB=d=cB | A3B2
=D | =GGGAGF | E3z2
B | eeB=d=cB | A3B2
=D | =GGGAGF | E3z3

@@@ Tune index: 1756
